src/assets-svg/sidebarlogo.svg

<svg width="62" height="68" viewBox="0 0 62 68" fill="none" xmlns="http://www.w3.org/2000/svg">
<path d="M19.5803 12.1185C20.8355 8.88159 23.6692 6.51927 27.0792 5.86707L34.357 4.47511L14.5184 57.241C12.6096 62.3181 7.02322 64.9719 1.88174 63.2441L-0.000348631 62.6117L19.5803 12.1185Z" fill="#F5FAFF"/>
<rect x="35.9727" y="5.60059" width="8.50687" height="39.2828" rx="2.51813" transform="rotate(20.4781 35.9727 5.60059)" fill="#F5FAFF"/>
<rect x="45.7441" y="10.7758" width="7.51236" height="32.2321" rx="2.51813" transform="rotate(19.9961 45.7441 10.7758)" fill="#F5FAFF"/>
<path d="M50.7462 26.8491C51.2456 25.5511 52.7026 24.9037 54.0006 25.4031L55.8807 26.1265C57.1787 26.6258 57.8261 28.0829 57.3268 29.3808L53.3201 39.7952C52.3214 42.3911 49.4073 43.6859 46.8113 42.6872L44.9312 41.9639L50.7462 26.8491Z" fill="#F5FAFF"/>
<ellipse cx="56.8443" cy="19.0269" rx="3.89008" ry="3.52538" transform="rotate(21.043 56.8443 19.0269)" fill="#F5FAFF"/>
</svg>

<svg width="62" height="68" fill="none" xmlns="http://www.w3.org/2000/svg"><path d="M19.58 12.118a10.072 10.072 0 0 1 7.5-6.25l7.277-1.393-19.839 52.766a10.072 10.072 0 0 1-12.636 6.003L0 62.612l19.58-50.494Z" fill="#F5FAFF"/><rect x="35.973" y="5.601" width="8.507" height="39.283" rx="2.518" transform="rotate(20.478 35.973 5.6)" fill="#F5FAFF"/><rect x="45.744" y="10.776" width="7.512" height="32.232" rx="2.518" transform="rotate(19.996 45.744 10.776)" fill="#F5FAFF"/><path d="M50.746 26.85a2.518 2.518 0 0 1 3.255-1.447l1.88.724a2.518 2.518 0 0 1 1.446 3.254L53.32 39.795a5.036 5.036 0 0 1-6.509 2.892l-1.88-.723 5.815-15.115Z" fill="#F5FAFF"/><ellipse cx="56.844" cy="19.027" rx="3.89" ry="3.525" transform="rotate(21.043 56.844 19.027)" fill="#F5FAFF"/></svg>
